X:1
T:Schifferlied
T:Satz von Friedrich Silcher
T:Schifferlied
T:CPDL - Creative Commons Attribution Non Commercial 3.0
T:CPDL - Creative Commons Attribution Non Commercial 3.0
C:Friedrich Silcher
Z:CPDL - Creative Commons Attribution Non Commercial 3.0
%%score [ ( 1 2 ) ( 3 4 ) ]
L:1/8
Q:1/4=66
M:6/8
K:G
V:1 treble-8 nm="Tenor"
V:2 treble-8 
V:3 bass nm="Bass"
V:4 bass 
V:1
!p!"^Andante con moto" D | G2!<(! B d2!<)! B | g>f a/g/!>(! f2!>)! z |!p! A^GA | !>!f2 e | %5
w: 1.~Es|löscht das Meer die|Son- * ne _ aus,|küh- len- des|Mond- licht|
w: 2.~Nun|ruh' an mei- nem|Her- * zen _ still,|si- cher auf|schwan- ker|
w: 3.~Wie|wiegt sich sanft der|leich- * te _ Kahn,|Lieb- chen, mit|dei- ner|
 dAc B2 D | G2!<(! B d2!<)! B | g>f a/g/!>(! f2 z!>)! |!p! A^GA !>!f2 e | dcA G2 z | %10
w: ist _ er- wacht, der|gold'- ne Ad- ler|lässt _ sein * Haus|mü- de dem Sil- ber-|schwan * der Nacht.|
w: Wel- * len Flur, ein|Schlum- mer- lied dir|sin- * gen * will|rau- schend die wo- gen-|de * Na- tur.|
w: sü- * ßen Last, als|Mu- schel zieht er|sei- * ne * Bahn,|die ei- ner Per- le|Klein- * od fasst.|
!p! AA!<(!B c2!<)! B | A2 e d2 B | d3!pp! AAB | c2 B A2 G | d3- d2!mf! D | G2!<(! B d2!<)! B | %16
w: Flüs- ternd am Kah- ne|glitzt der Bran- dung|Lauf, lei- se der|Wind die Sai- ten|rührt, _ die|Lie- be zieht ihr|
w: Küs- send der Wel- le|Na- cken streift der|Wind, Lieb- chen, so|lass die Wan- ge|mir, _ und|träu- me, dass dein|
w: Ach, dass mein Arm die|trau- te Scha- le|war', die dich um-|schlos- se al- le-|zeit! _ mit|mei- nem Ru- der|
 g>f a/g/ f2 z |!f! A^GA !>!f2 e | dcA G2 |] %19
w: Se- * gel * auf,|Sehn- sucht das Ru- der|si- * cher führt.|
w: Schiff- * lein * lind|ich durch das gan- ze|Le- * ben führ'.|
w: spielt * das * Meer,|Lieb- chen, mein Arm ist|dir _ be- reit.|
V:2
 D | G2 G B2 B | d2 d d2 x | F^EF | c2 B | AFA G2 D | G2 G B2 B | d2 d d2 x | F^EF c2 B | %9
 A2 c B2 x | FFG A2 G | F2 A B2 G | A3 FFG | A2 G F2 G | c3- c2 D | G2 G B2 B | d2 d d2 x | %17
 F^EF c2 B | A2 c B2 |] %19
V:3
!p! D, | B,,2!<(! D, D,2!<)! G, | B,>A, C/B,/!>(! A,2!>)! z |!p! D,D,D, | !>!A,2 G, | %5
 F,2 F, D,2 D, | B,,2!<(! D, D,2!<)! G, | B,>A, C/B,/!>(! A,2 z!>)! |!p! D,D,D, !>!A,2 G, | %9
 F,2 D, D,2 z |!p! D,D,!<(!D, D,2!<)! D, | D,2 F, G,2 G, | F,3!pp! D,D,D, | D,2 D, D,2 G, | %14
 A,3- A,2!mf! D, | B,,2!<(! D, D,2!<)! G, | B,>A, C/B,/ A,2 z |!f! D,D,D, !>!A,2 G, | F,2 F, D,2 |] %19
V:4
 D, | B,,2 D, G,,2 G, | D,2 D, D,2 x | D,D,D, | D,2 D, | D,2 D, G,,2 D, | B,,2 D, G,,2 G, | %7
 D,2 D, D,2 x | D,D,D, D,2 D, | D,2 D, G,,2 x | D,D,D, D,2 D, | D,2 C, B,,2 E, | D,3 D,D,D, | %13
 D,2 D, D,2 E, | F,3- F,2 D, | B,,2 D, G,,2 G, | D,2 D, D,2 x | D,D,D, D,2 D, | D,2 D, G,,2 |] %19

